icons/skype-o.svg

<svg width="24" height="24" viewBox="0 0 24 24" xmlns="http://www.w3.org/2000/svg">
    <path fill-rule="evenodd"
        d="M5.09668 5.09888C5.77336 4.41819 6.70362 4 7.73138 4C8.40576 4 9.03454 4.17825 9.57628 4.49042L9.80592 4.62275L10.071 4.62396C10.5792 4.62629 10.9611 4.61613 11.277 4.60553L11.4615 4.59914L11.4616 4.59914C11.6901 4.5911 11.8686 4.58483 12.0514 4.58483C14.1121 4.58483 15.9769 5.42383 17.3299 6.78453C18.6845 8.14681 19.5214 10.0273 19.5214 12.1072C19.5214 12.5553 19.4826 12.9935 19.4087 13.418L19.3597 13.6993L19.4666 13.964C19.9352 15.1246 20.1034 15.7872 20.1034 16.4514C20.1034 17.4936 19.6848 18.4343 19.0067 19.1162C18.3298 19.7969 17.3991 20.2152 16.3707 20.2152C15.6972 20.2152 15.0688 20.037 14.5259 19.7244L14.2963 19.5922L14.0314 19.5911C13.5231 19.5888 13.1411 19.5992 12.8251 19.61L12.6419 19.6164C12.4128 19.6246 12.2343 19.631 12.0514 19.631C9.99106 19.631 8.12616 18.7919 6.77303 17.4308C5.41838 16.0683 4.58138 14.1875 4.58138 12.1072C4.58138 11.6595 4.61948 11.223 4.6939 10.8026L4.74393 10.52L4.63646 10.2539C4.16717 9.09174 4 8.42835 4 7.76379C4 6.72176 4.41861 5.78095 5.09668 5.09888ZM7.73138 2C6.1474 2 4.71331 2.6477 3.6783 3.68884C2.64148 4.73179 2 6.17415 2 7.76379C2 8.7423 2.24435 9.63174 2.67827 10.742C2.61369 11.1894 2.58138 11.6457 2.58138 12.1072C2.58138 14.7352 3.64137 17.1176 5.35471 18.8409C7.06639 20.5626 9.43517 21.631 12.0514 21.631C12.2735 21.631 12.4963 21.623 12.7295 21.6146H12.7296L12.8934 21.6088C13.1389 21.6004 13.4203 21.5925 13.7733 21.591C14.5543 21.991 15.4378 22.2152 16.3707 22.2152C17.955 22.2152 19.3895 21.5677 20.4249 20.5264C21.4619 19.4836 22.1034 18.0412 22.1034 16.4514C22.1034 15.4719 21.8573 14.5822 21.4244 13.475C21.4883 13.028 21.5214 12.5712 21.5214 12.1072C21.5214 9.47953 20.4615 7.09743 18.7481 5.37434C17.0365 3.65295 14.6678 2.58483 12.0514 2.58483C11.83 2.58483 11.6078 2.59268 11.375 2.60091L11.2099 2.60665C10.9643 2.61489 10.6827 2.62268 10.3294 2.62408C9.54845 2.22392 8.66441 2 7.73138 2ZM11.9667 6.66667C11.2349 6.66667 10.2866 6.78413 9.48365 7.22211C8.61647 7.69511 7.93333 8.54718 7.93333 9.83334C7.93333 10.4516 8.09902 11.0105 8.47678 11.4669C8.83717 11.9023 9.31314 12.1491 9.75299 12.3093C10.1899 12.4683 10.6816 12.5727 11.1421 12.6643C11.2332 12.6824 11.3239 12.7002 11.4145 12.7179L11.4145 12.718C11.8037 12.7942 12.1894 12.8698 12.5908 12.9701C13.4588 13.1872 13.7489 13.3548 13.8596 13.4654C13.9024 13.5083 14 13.6085 14 14.1667C14 14.4415 13.8769 14.6964 13.5599 14.9183C13.2235 15.1537 12.6789 15.3333 11.9667 15.3333C10.9788 15.3333 10.3556 14.9331 9.96544 14.5429C9.76415 14.3416 9.62283 14.1395 9.53353 13.9907C9.4893 13.917 9.45915 13.8585 9.44182 13.8229C9.4332 13.8051 9.42787 13.7932 9.42568 13.7883L9.42502 13.7868L9.42502 13.7867C9.21689 13.2797 8.63854 13.0342 8.12861 13.2382C7.61582 13.4433 7.36641 14.0253 7.57152 14.5381L8.5 14.1667C7.57152 14.5381 7.57171 14.5385 7.57191 14.539L7.57232 14.54L7.5732 14.5422L7.57523 14.5472L7.58037 14.5596C7.58428 14.5689 7.58916 14.5804 7.59505 14.5937C7.60682 14.6205 7.62266 14.6552 7.64281 14.6967C7.68304 14.7795 7.7409 14.8903 7.81855 15.0197C7.973 15.2771 8.21085 15.6167 8.55123 15.9571C9.24439 16.6503 10.3545 17.3333 11.9667 17.3333C12.9878 17.3333 13.9598 17.0796 14.7068 16.5567C15.4731 16.0203 16 15.1918 16 14.1667C16 13.4249 15.8809 12.6584 15.2738 12.0512C14.7344 11.5119 13.9412 11.2462 13.0759 11.0299C12.6194 10.9158 12.1725 10.8283 11.7808 10.7516L11.7805 10.7516C11.695 10.7348 11.6121 10.7186 11.5323 10.7027C11.0645 10.6097 10.7125 10.5302 10.4372 10.43C10.1648 10.3308 10.0599 10.2428 10.0175 10.1916C9.9924 10.1613 9.93333 10.0818 9.93333 9.83334C9.93333 9.38617 10.1169 9.1549 10.4414 8.9779C10.8301 8.76588 11.3984 8.66667 11.9667 8.66667C12.7572 8.66667 13.2878 8.97523 13.6315 9.28075C13.8075 9.43725 13.9343 9.59363 14.0147 9.70719C14.0545 9.76342 14.0818 9.80742 14.097 9.83322C14.1043 9.84563 14.1087 9.85364 14.1103 9.85654C14.3601 10.3437 14.9564 10.5399 15.4472 10.2944C15.9412 10.0474 16.1414 9.44677 15.8944 8.95279L15 9.40001C15.8944 8.95279 15.8942 8.95235 15.894 8.9519L15.8935 8.95096L15.8925 8.94897L15.8902 8.94448L15.8846 8.93357C15.8804 8.92545 15.8752 8.91564 15.869 8.90426C15.8567 8.88151 15.8404 8.85239 15.8201 8.81783C15.7794 8.74884 15.722 8.65742 15.6468 8.55115C15.497 8.33971 15.2716 8.06276 14.9602 7.78593C14.3289 7.22478 13.3428 6.66667 11.9667 6.66667Z" />
</svg>

<svg xmlns="http://www.w3.org/2000/svg" width="24" height="24" viewBox="0 0 24 24">
    <path
        d="M5.097 5.099C5.773 4.419 6.704 4 7.73 4c.675 0 1.304.178 1.845.49l.23.133.265.001c.508.002.89-.008 1.206-.018l.184-.007c.23-.008.408-.014.59-.014 2.061 0 3.926.839 5.279 2.2 1.355 1.362 2.191 3.242 2.191 5.322 0 .448-.038.886-.112 1.311l-.05.281.108.265c.468 1.16.636 1.823.636 2.487 0 1.043-.418 1.983-1.096 2.665-.677.68-1.608 1.1-2.636 1.1-.674 0-1.302-.179-1.845-.492l-.23-.132h-.265c-.508-.003-.89.007-1.206.018l-.183.006c-.23.009-.408.015-.59.015-2.06 0-3.926-.84-5.279-2.2-1.355-1.363-2.192-3.244-2.192-5.324 0-.447.038-.884.113-1.304l.05-.283-.108-.266C4.167 9.092 4 8.428 4 7.764c0-1.042.419-1.983 1.097-2.665zM7.73 2c-1.584 0-3.018.648-4.053 1.689C2.641 4.732 2 6.174 2 7.764c0 .978.244 1.868.678 2.978-.064.447-.097.904-.097 1.365 0 2.628 1.06 5.01 2.774 6.734 1.711 1.722 4.08 2.79 6.696 2.79.223 0 .445-.008.678-.016l.164-.006c.246-.009.527-.017.88-.018.781.4 1.665.624 2.598.624 1.584 0 3.019-.647 4.054-1.689 1.037-1.042 1.678-2.485 1.678-4.075 0-.98-.246-1.869-.679-2.976.064-.447.097-.904.097-1.368 0-2.627-1.06-5.01-2.773-6.733-1.712-1.721-4.08-2.79-6.697-2.79-.221 0-.443.009-.676.017l-.165.006c-.246.008-.527.016-.88.017C9.547 2.224 8.663 2 7.73 2zm4.236 4.667c-.732 0-1.68.117-2.483.555-.868.473-1.55 1.325-1.55 2.611 0 .619.165 1.178.543 1.634.36.435.836.682 1.276.842.437.16.929.264 1.39.355l.271.054c.39.076.775.152 1.177.252.868.217 1.158.385 1.269.495.042.043.14.143.14.702 0 .274-.123.53-.44.751-.337.236-.881.415-1.593.415-.988 0-1.611-.4-2.002-.79-.2-.201-.342-.403-.431-.552-.045-.074-.075-.133-.092-.168l-.016-.035-.001-.001c-.208-.507-.786-.753-1.296-.549-.513.205-.763.787-.557 1.3l.928-.371-.928.372v.001l.001.002.002.005.005.013c.004.009.01.02.015.034l.048.103c.04.083.098.193.176.323.154.257.392.597.732.937.693.693 1.803 1.376 3.416 1.376 1.02 0 1.993-.253 2.74-.776.766-.537 1.293-1.365 1.293-2.39 0-.742-.12-1.509-.726-2.116-.54-.54-1.333-.805-2.198-1.021-.457-.114-.904-.202-1.295-.278l-.249-.05c-.467-.092-.82-.172-1.095-.272-.272-.1-.377-.187-.42-.238-.025-.03-.084-.11-.084-.359 0-.447.184-.678.508-.855.39-.212.957-.311 1.526-.311.79 0 1.32.308 1.665.614.175.156.302.313.383.426.04.056.067.1.082.126.007.013.012.02.013.024.25.487.846.683 1.337.437.494-.247.694-.847.447-1.341L15 9.4l.894-.448V8.95l-.002-.002-.002-.005-.005-.01-.016-.03-.049-.086c-.04-.07-.098-.16-.173-.267-.15-.211-.375-.488-.687-.765-.631-.561-1.617-1.12-2.993-1.12z" />
</svg>
